components/ui-node-icon/src/editColumn/editColumn.large.svg

<svg width="32" height="32" viewBox="0 0 32 32" fill="none" xmlns="http://www.w3.org/2000/svg">
  <path fill-rule="evenodd" clip-rule="evenodd" d="M4 10C2.89543 10 2 10.8954 2 12V20C2 21.1046 2.89543 22 4 22L17 22V10H4ZM21 10V22L27 22C28.1046 22 29 21.1046 29 20V12C29 10.8954 28.1046 10 27 10H21Z" fill="var(--tbl--colors--icons--clean--secondary)"/>
  <path fill-rule="evenodd" clip-rule="evenodd" d="M17 6C16.4477 6 16 6.44772 16 7C16 7.55228 16.4477 8 17 8H18C18.5523 8 19 8.44772 19 9V23C19 23.5523 18.5523 24 18 24H17C16.4477 24 16 24.4477 16 25C16 25.5523 16.4477 26 17 26H18C18.7684 26 19.4692 25.7111 20 25.2361C20.5308 25.7111 21.2316 26 22 26H23C23.5523 26 24 25.5523 24 25C24 24.4477 23.5523 24 23 24H22C21.4477 24 21 23.5523 21 23V9C21 8.44772 21.4477 8 22 8H23C23.5523 8 24 7.55228 24 7C24 6.44772 23.5523 6 23 6H22C21.2316 6 20.5308 6.28885 20 6.76389C19.4692 6.28885 18.7684 6 18 6H17Z" fill="var(--tbl--colors--icons--clean--primary)"/>
</svg>

<svg xmlns="http://www.w3.org/2000/svg" width="32" height="32" fill="none" viewBox="0 0 32 32">
  <path fill="var(--tbl--colors--icons--clean--secondary)" fill-rule="evenodd" d="M4 10a2 2 0 0 0-2 2v8a2 2 0 0 0 2 2h13V10H4Zm17 0v12h6a2 2 0 0 0 2-2v-8a2 2 0 0 0-2-2h-6Z" clip-rule="evenodd"/>
  <path fill="var(--tbl--colors--icons--clean--primary)" fill-rule="evenodd" d="M17 6a1 1 0 1 0 0 2h1a1 1 0 0 1 1 1v14a1 1 0 0 1-1 1h-1a1 1 0 1 0 0 2h1c.768 0 1.47-.289 2-.764.53.475 1.232.764 2 .764h1a1 1 0 1 0 0-2h-1a1 1 0 0 1-1-1V9a1 1 0 0 1 1-1h1a1 1 0 1 0 0-2h-1c-.768 0-1.47.289-2 .764A2.989 2.989 0 0 0 18 6h-1Z" clip-rule="evenodd"/>
</svg>
